X: 201244
T: Tom Billy Murphy's
S: "Johnny O'Leary of Sliabh Luachra" (#182)
Z: B.Black
L: 1/8
M: 6/8
R: jig
K: Edor
d|: dBA G3|BAG Add|dBA GBA|GEE EDE|
dBA G2A|BAB Bge|dBA GBA|GEE E3 :|
g3 e2f|gfg e2f|gfg eag|faa def|
gfg dAA|gef gfe|dBA GBA|GEE E3 :|
